resources/haticons/SVG/local_shipping.svg

<!-- Generated by IcoMoon.io -->
<svg version="1.1" xmlns="http://www.w3.org/2000/svg" width="24" height="24" viewBox="0 0 24 24">
<title>local_shipping</title>
<path d="M18 18.516q0.656 0 1.078-0.445t0.422-1.055-0.422-1.055-1.078-0.445-1.078 0.445-0.422 1.055 0.422 1.055 1.078 0.445zM19.5 9.516h-2.484v2.484h4.453zM6 18.516q0.656 0 1.078-0.445t0.422-1.055-0.422-1.055-1.078-0.445-1.078 0.445-0.422 1.055 0.422 1.055 1.078 0.445zM20.016 8.016l3 3.984v5.016h-2.016q0 1.219-0.891 2.109t-2.109 0.891-2.109-0.891-0.891-2.109h-6q0 1.219-0.891 2.109t-2.109 0.891-2.109-0.891-0.891-2.109h-2.016v-11.016q0-0.797 0.609-1.406t1.406-0.609h14.016v4.031h3z"></path>
</svg>

<svg xmlns="http://www.w3.org/2000/svg" width="24" height="24"><path d="M18 18.516q.656 0 1.078-.445t.422-1.055-.422-1.055T18 15.516t-1.078.445-.422 1.055.422 1.055 1.078.445zm1.5-9h-2.484V12h4.453zm-13.5 9q.656 0 1.078-.445t.422-1.055-.422-1.055T6 15.516t-1.078.445-.422 1.055.422 1.055T6 18.516zm14.016-10.5l3 3.984v5.016H21q0 1.219-.891 2.109T18 20.016t-2.109-.891T15 17.016H9q0 1.219-.891 2.109T6 20.016t-2.109-.891T3 17.016H.984V6q0-.797.609-1.406t1.406-.609h14.016v4.031h3z"/></svg>
